spacelab_test3/img/antrax/facebook.svg

<svg width="25" height="24" viewBox="0 0 25 24" fill="none" xmlns="http://www.w3.org/2000/svg">
<rect width="24.7742" height="24" rx="12" fill="#3F5C95"/>
<path d="M14.7097 7.80587V9.15341H13.8712C13.2063 9.15341 13.081 9.45593 13.081 9.88677V10.8585H14.6615L14.4495 12.371H13.081V16.2578H11.433V12.371H10.0645V10.8585H11.433V9.7401C11.433 8.44756 12.2714 7.7417 13.4857 7.7417C14.064 7.7417 14.5651 7.77837 14.7097 7.80587Z" fill="white"/>
</svg>

<svg width="25" height="24" fill="none" xmlns="http://www.w3.org/2000/svg"><rect width="24.774" height="24" rx="12" fill="#3F5C95"/><path d="M14.71 7.806v1.347h-.839c-.665 0-.79.303-.79.734v.971h1.58l-.211 1.513h-1.37v3.887h-1.648V12.37h-1.368v-1.513h1.368V9.74c0-1.292.838-1.998 2.053-1.998.578 0 1.08.036 1.224.064z" fill="#fff"/></svg>
